src/main/resources/icons/RIcons/icons/fileTypes/presentation.svg

<svg width="16" height="16" viewBox="0 0 16 16" fill="none" xmlns="http://www.w3.org/2000/svg"><rect id="frame" width="16" height="16" fill="none"/><path fill-rule="evenodd" clip-rule="evenodd" d="M9 1H7v1H1v2h1v7h3.4L3 15h2l2.4-4h1.2l2.4 4h2l-2.4-4H14V4h1V2H9V1zM4 4h8v5H4V4z" fill="#9AA7B0"/></svg>

<svg width="16" height="16" viewBox="0 0 16 16" fill="none" xmlns="http://www.w3.org/2000/svg">
<path fill-rule="evenodd" clip-rule="evenodd" d="M9 1H7V2H1V4H2V11H5.4L3 15H5L7.4 11H8.6L11 15H13L10.6 11H14V4H15V2H9V1ZM4 4H12V9H4V4Z" fill="#9AA7B0"/>
</svg>
